X:2335
T:Hinkin Winkin 
T:Clean Suggane
C:James Kelly
C:Traditional
O:Isle of Man
Z:Collected by Mona Douglas 
B:Kiaull Vannin #335 
N:See also KV 114
M:3/4 
L:1/4
Q:160 
K:D 
d2 c|B2 A|B2 d| A3|A2 B|A2 F|A2 B| A3|
d2 c|B2 A|B2 d| F3|A2 B|c2 d|B2 c|A3| 
d3 |d3 |d2 e|d2 c|B3 |e3 |e2 d|e2 e|
d2 d|d2 e|f2 g|f2 e|d2 B|A3 |d2 F| E3|
F2 A| B3|A3 |G3 |F2 A|B3 |A3 |A3 || 

